frontend/public/svg/arrows/arrow-nw.svg

<svg width="108" height="109" viewBox="0 0 108 109" fill="none" xmlns="http://www.w3.org/2000/svg">
<path d="M61.9579 58.1272C74.5806 70.9551 87.1968 83.7895 99.8063 96.63C102.315 99.1944 104.656 101.933 106.934 104.708C107.306 105.17 107.531 105.735 107.578 106.327C107.624 106.92 107.491 107.512 107.196 108.028C106.754 108.885 105.11 109.086 104.111 108.36C103.145 107.656 102.11 107.028 101.219 106.239C95.533 101.201 89.7113 96.3005 84.2479 91.0295C73.0246 80.1999 61.9442 69.222 50.9059 58.2067C40.4308 47.7552 30.0999 37.1612 19.6589 26.6736C17.9833 24.9894 16.0904 23.5199 14.2632 21.9926C14.1245 21.9087 13.967 21.861 13.8051 21.8539C13.6431 21.8468 13.482 21.8805 13.3365 21.9519C13.0471 22.181 12.686 22.6909 12.7654 22.96C14.233 27.9239 15.57 32.9363 17.3165 37.8044C21.3799 49.1243 24.1424 60.7893 26.8911 72.4643C27.342 74.3828 27.8383 76.3702 26.8604 78.3057C26.6825 78.6582 26.3641 79.2469 26.1646 79.2246C25.4004 79.1981 24.6548 78.9827 23.9942 78.5978C23.3714 78.1064 22.8971 77.4517 22.6243 76.7068C21.6398 74.0894 20.7019 71.449 19.8677 68.781C13.8806 49.7117 7.95259 30.6241 1.93923 11.5627C-0.329078 4.37322 -0.191973 -0.257966 10.8916 0.0111321C14.086 0.0879236 17.2975 0.185773 20.463 0.576294C35.1466 2.38954 49.8212 4.27102 64.4868 6.22078C66.4483 6.54417 68.3816 7.01991 70.2692 7.6437C71.5333 8.01847 72.0893 9.10213 72.2632 10.3426C72.4548 11.7084 71.2314 13.898 70.2121 14.3797C67.9497 15.4496 65.5397 15.4844 63.1565 15.3157C53.9835 14.6646 44.8157 13.9301 35.6487 13.1911C29.676 12.7093 23.7125 12.1534 17.7412 11.6815C17.4458 11.6585 17.0158 12.0753 16.8281 12.3897C16.7612 12.5418 16.7323 12.7079 16.7437 12.8737C16.7551 13.0394 16.8067 13.1999 16.8938 13.3414C18.469 15.1358 20.0134 16.9631 21.7074 18.6394C35.0682 31.8606 48.4469 45.0642 61.8432 58.25L61.9579 58.1272Z" fill="black"/>
</svg>

<svg xmlns="http://www.w3.org/2000/svg" width="108" height="109" fill="none" viewBox="0 0 108 109"><path fill="#000" d="M61.958 58.127A53252 53252 0 0 1 99.806 96.63c2.509 2.564 4.85 5.303 7.128 8.078a2.96 2.96 0 0 1 .262 3.32c-.442.857-2.086 1.058-3.085.332-.966-.704-2.001-1.332-2.892-2.121-5.686-5.038-11.508-9.939-16.971-15.21C73.025 80.2 61.944 69.223 50.906 58.207 40.43 47.755 30.1 37.16 19.659 26.674c-1.676-1.685-3.569-3.154-5.396-4.681a.97.97 0 0 0-.927-.041c-.289.229-.65.739-.57 1.008 1.467 4.964 2.804 9.976 4.55 14.844 4.064 11.32 6.826 22.985 9.575 34.66.451 1.919.947 3.906-.03 5.842-.178.352-.497.94-.696.919a4.6 4.6 0 0 1-2.17-.627 4.3 4.3 0 0 1-1.37-1.891c-.985-2.618-1.923-5.258-2.757-7.926C13.88 49.711 7.953 30.624 1.939 11.563-.329 4.373-.192-.258 10.892.01c3.194.077 6.406.175 9.571.565A4769 4769 0 0 1 64.487 6.22c1.961.323 3.895.799 5.782 1.423 1.264.374 1.82 1.458 1.994 2.699.192 1.365-1.032 3.555-2.05 4.037-2.263 1.07-4.673 1.104-7.056.936-9.173-.651-18.341-1.386-27.508-2.125-5.973-.482-11.937-1.038-17.908-1.51-.295-.022-.725.394-.913.709a1.03 1.03 0 0 0 .066.951c1.575 1.795 3.12 3.622 4.813 5.298A21143 21143 0 0 0 61.843 58.25z"/></svg>
